svgs/thin/square-4.svg

<svg xmlns="http://www.w3.org/2000/svg" viewBox="0 0 448 512"><!--! Font Awesome Pro 6.6.0 by @fontawesome - https://fontawesome.com License - https://fontawesome.com/license (Commercial License) Copyright 2024 Fonticons, Inc. --><path d="M64 48C37.5 48 16 69.5 16 96l0 320c0 26.5 21.5 48 48 48l320 0c26.5 0 48-21.5 48-48l0-320c0-26.5-21.5-48-48-48L64 48zM0 96C0 60.7 28.7 32 64 32l320 0c35.3 0 64 28.7 64 64l0 320c0 35.3-28.7 64-64 64L64 480c-35.3 0-64-28.7-64-64L0 96zm203 32.6c4.1 1.7 6 6.3 4.4 10.4L139.9 304 272 304l0-104c0-4.4 3.6-8 8-8s8 3.6 8 8l0 104 24 0c4.4 0 8 3.6 8 8s-3.6 8-8 8l-24 0 0 56c0 4.4-3.6 8-8 8s-8-3.6-8-8l0-56-144 0c-2.7 0-5.2-1.3-6.6-3.5s-1.8-5-.8-7.5l72-176c1.7-4.1 6.3-6 10.4-4.4z"/></svg>

<svg xmlns="http://www.w3.org/2000/svg" viewBox="0 0 448 512"><!--! Font Awesome Pro 6.5.2 by @fontawesome - https://fontawesome.com License - https://fontawesome.com/license (Commercial License) Copyright 2024 Fonticons, Inc. --><path d="M64 48C37.5 48 16 69.5 16 96V416c0 26.5 21.5 48 48 48H384c26.5 0 48-21.5 48-48V96c0-26.5-21.5-48-48-48H64zM0 96C0 60.7 28.7 32 64 32H384c35.3 0 64 28.7 64 64V416c0 35.3-28.7 64-64 64H64c-35.3 0-64-28.7-64-64V96zm203 32.6c4.1 1.7 6 6.3 4.4 10.4L139.9 304H272V200c0-4.4 3.6-8 8-8s8 3.6 8 8V304h24c4.4 0 8 3.6 8 8s-3.6 8-8 8H288v56c0 4.4-3.6 8-8 8s-8-3.6-8-8V320H128c-2.7 0-5.2-1.3-6.6-3.5s-1.8-5-.8-7.5l72-176c1.7-4.1 6.3-6 10.4-4.4z"/></svg>
